X:70
T:Mountain Road, The
C:Michael Gorman (1895-1970)
S:Madison WI sessions
N:transcribed by Alan Ng
Z:composer according to http://home1.swipnet.se/~w-11382/hnr0.abc #79
Z: id:ng-reels-14 transcribed by Alan Ng agng@students.wisc.edu Feb. 7, 1997
E:13
M:C|
K:D
\bigskip
F2AF BFAF|~F2AF EFDE|1 F2AF BFAF|G2FG EDB,D:|2 FA~A2 BAFB|ABde fd d2\
|:~d3B ADFA|~d3e fgfe|~d3B AFDF|G2FG EDB,D:|**
\bigskip
